X:35
T:Maggie in the Wood
R:polka
Z:id:hn-polka-19
M:2/4
L:1/8
K:G
GD G>A|Be eg/e/|dB B/A/G/A/|BA AB/A/|
GD G>A|Be eg/e/|dB AB/A/|1 G2 GA:|2 G2 Ge/f/||
|:gf ed|ef g>e|dB B/A/G/A/|BA Ae/f/|
gf ed|ef g>e|dB AB/A/|1 G2 Ge/f/:|2 G2 GA||
